X: 39124
T: Sweet Flowers Of Milltown, The
R: barndance
M: 4/4
K: Gmajor
D|G>FG>B A>GE>D|G>FG>B dzB>d|e>f{a}g>f e>dB>A|GA/G/ F2 EF/E/ D2|
G>FG>B A>GE>D|G>F (3GAB dzB>d|e>fg>f e>dB>G|AB/A/ G>F G3:|
d|g>fg>b a>ga>b|g>a (3gfe dzB>d|e>fg>f e>dB>A|GA/G/ F2 EF/E/ D2|
g>fg>b a>ga>b|g>ag>e dzB>d|e>f{a}g>f e>dB>G|AB/A/ G>F G3d|
gzg>b a>ga>b|g>a (3gfe dzB>d|e>fg>f e>dB>A|GA/G/ F2 EF/E/ D2|
G>FG>B A>GE>D|G>F (3GAB dzB>d|e>f{a}g>f e>dB>G|AB/A/ G>F G3||

